svg/u1fad8.svg

<svg viewBox="0 0 128 128" xmlns="http://www.w3.org/2000/svg" xmlns:xlink="http://www.w3.org/1999/xlink">
  <path d="M56.96,30.28L3.72,48.43c0,0,0.37,3.53,1.93,6.57c1.95,3.79,5.78,8.42,13.16,10.08 c10.91,2.45,23.92-1.52,36.49-9.94S74.7,32.74,72.19,21.8C69.86,11.66,63.54,9.04,58.88,8.57c-1.83-0.18-4.87-0.03-6.22,0.45 C50.56,9.75,56.96,30.28,56.96,30.28z" fill="#871E0C"/>
  <path d="M33,23.16c-7.38,5.29-20.69,3.76-27.4,15.52c-5.98,10.5,1.8,21.7,11.81,21.7 c9.9,0,23-4.58,32.77-11.05c10.2-6.76,23.93-28.06,12.94-36.98C50.73,2.29,42.59,16.29,33,23.16z" fill="#A62714"/>
  <path d="M41.47,20.55c-1.14-0.2-2.13,2.5-7.25,5.85c-6.92,4.53-11.13,3.71-10.63,6.02 c0.4,1.85,4.36,3.02,9.64,1.32C42.21,30.85,44.27,21.05,41.47,20.55z" fill="#FBCB89"/>
  <path d="M46.59,19.96c-2.26-1.23-1.02-4.23,1.73-6.68c2.97-2.64,6.43-2.39,7.25-1.07 c1.04,1.66-1.54,3.74-3.05,5.11C50.71,18.98,49.31,21.45,46.59,19.96z" fill="#D16250"/>
  <path d="M17.06,35.91c-1.82-2.28-5.39-0.11-7.5,2.72C7.17,41.84,5.94,49.67,9.23,50 c2.47,0.25,2.47-4.37,4.12-6.51C15,41.35,19.03,38.38,17.06,35.91z" fill="#D16250"/>
  <path d="M86.53,35.06c0,0,1.99-6.14,4.77-5.85c2.89,0.3,5.67,0.64,9.4,5.72c4.2,5.71,5.74,13.74,8.84,17.63 c8.36,10.47,13.4,11.42,14.68,22.14c1.22,10.2-6.02,23.42-20.94,20.63c-18.05-3.37-25.87-25.27-25.87-25.27L86.53,35.06z" fill="#871E0C"/>
  <path d="M77,34.63c-4.58,5.51-4.63,14.32-3.97,19.43s4.56,21.48,11.4,28.65c6.84,7.17,16.83,11.38,24,8.91 c7.17-2.47,10.91-7.88,9.61-16.45c-0.7-4.62-3.63-8.63-7.83-11.68c-4.2-3.05-11.46-11.04-11.46-11.04s-2.06-10.71-2.47-14.5 c-0.41-3.79-0.38-7.37-3.49-8.44C90.51,28.71,81.86,28.78,77,34.63z" fill="#A62714"/>
  <path d="M85.81,35.06c-1.55-1.42-3.44-0.37-4.18,0.92c-0.66,1.15-1.04,2.57,0.16,3.51 c1.48,1.15,2.68,0.27,3.85-0.96C86.52,37.59,86.8,35.96,85.81,35.06z" fill="#D16250"/>
  <path d="M78.89,42.76c-1.52,0.25-3.15,2.47-2.19,10.95c1.15,10.13,5.92,18.18,9.31,22.84 c3.51,4.82,6.92,4.01,6.96,3.51c0.11-1.42-2.14-3.56-4.87-8.82c-4.1-7.87-6.55-16.06-6.9-20.37C80.7,44.74,80.86,42.44,78.89,42.76z " fill="#D16250"/>
  <path d="M95.95,43.47c-0.81,0.66-1.93,5.59,3.15,13.94c5.93,9.75,11.06,8.05,11.5,7.01 c0.44-1.04-3.54-4.34-5.31-6.78c-3.17-4.37-4.16-6.53-6.22-10.62C98.18,45.25,96.82,42.76,95.95,43.47z" fill="#FBCB89"/>
  <path d="M50.42,95.6c-0.25-0.08-35.94-10.62-35.94-10.62s-0.36,1.07-0.56,2.82c-0.41,3.56,0,9.63,3.04,14.88 c2.58,4.45,6.81,7.94,12.61,10.56c3.57,1.62,8.14,2.97,14.39,4.27c18.21,3.78,40.29-1.34,42.55-18.47c0.92-6.95-3.1-12.4-6.57-15.08 c-5.08-3.93-10.55-3.21-10.55-3.21L50.42,95.6z" fill="#871E0C"/>
  <path d="M56.04,80.83c-11.83,0-17.12-7.64-27.36-6.97c-7.07,0.46-11.25,4.45-12.93,7.81 c-1.68,3.36-3.41,9.22,0.67,13.85c4.45,5.04,11.41,12.34,32.9,16.03c21.81,3.75,32.57-9.4,33.49-16.95 c0.92-7.55-3.27-12.67-9.48-13.6C67.12,80.07,58.32,80.83,56.04,80.83z" fill="#A62714"/>
  <path d="M42.44,81.42c-1.12,1.15,2.07,7.48,10.02,7.95s11.02-4.62,10.02-5.28c-0.59-0.39-6.86-0.16-9.88-0.47 C47.38,83.1,43.09,80.76,42.44,81.42z" fill="#FBCB89"/>
  <path d="M34.85,80.66c-1.06,3.69-7.46,0.69-11.34,3.1c-4.16,2.57-5.48,7.32-6.46,7.32 c-1.45,0-1.55-8.38,5.87-12.53C28.46,75.45,35.6,78.06,34.85,80.66z" fill="#D16250"/>
</svg>

<svg viewBox="0 0 128 128" xmlns="http://www.w3.org/2000/svg">
  <defs/>
  <path d="M56.96,30.28 L3.72,48.43 C3.72,48.43 4.09,51.96 5.65,55 C7.6,58.79 11.43,63.42 18.81,65.08 C29.72,67.53 42.73,63.56 55.3,55.14 C67.87,46.72 74.7,32.74 72.19,21.8 C69.86,11.66 63.54,9.04 58.88,8.57 C57.05,8.39 54.01,8.54 52.66,9.02 C50.56,9.75 56.96,30.28 56.96,30.28 Z" fill="#871E0C"/>
  <path d="M33,23.16 C25.62,28.45 12.31,26.92 5.6,38.68 C-0.38,49.18 7.4,60.38 17.41,60.38 C27.31,60.38 40.41,55.8 50.18,49.33 C60.38,42.57 74.11,21.27 63.12,12.35 C50.73,2.29 42.59,16.29 33,23.16 Z" fill="#A62714"/>
  <path d="M41.47,20.55 C40.33,20.35 39.34,23.05 34.22,26.4 C27.3,30.93 23.09,30.11 23.59,32.42 C23.99,34.27 27.95,35.44 33.23,33.74 C42.21,30.85 44.27,21.05 41.47,20.55 Z" fill="#FBCB89"/>
  <path d="M46.59,19.96 C44.33,18.73 45.57,15.73 48.32,13.28 C51.29,10.64 54.75,10.89 55.57,12.21 C56.61,13.87 54.03,15.95 52.52,17.32 C50.71,18.98 49.31,21.45 46.59,19.96 Z" fill="#D16250"/>
  <path d="M17.06,35.91 C15.24,33.63 11.67,35.8 9.56,38.63 C7.17,41.84 5.94,49.67 9.23,50 C11.7,50.25 11.7,45.63 13.35,43.49 C15,41.35 19.03,38.38 17.06,35.91 Z" fill="#D16250"/>
  <path d="M86.53,35.06 C86.53,35.06 88.52,28.92 91.3,29.21 C94.19,29.51 96.97,29.85 100.7,34.93 C104.9,40.64 106.44,48.67 109.54,52.56 C117.9,63.03 122.94,63.98 124.22,74.7 C125.44,84.9 118.2,98.12 103.28,95.33 C85.23,91.96 77.41,70.06 77.41,70.06 L86.53,35.06 Z" fill="#871E0C"/>
  <path d="M77,34.63 C72.42,40.14 72.37,48.95 73.03,54.06 C73.69,59.17 77.59,75.54 84.43,82.71 C91.27,89.88 101.26,94.09 108.43,91.62 C115.6,89.15 119.34,83.74 118.04,75.17 C117.34,70.55 114.41,66.54 110.21,63.49 C106.01,60.44 98.75,52.45 98.75,52.45 C98.75,52.45 96.69,41.74 96.28,37.95 C95.87,34.16 95.9,30.58 92.79,29.51 C90.51,28.71 81.86,28.78 77,34.63 Z" fill="#A62714"/>
  <path d="M85.81,35.06 C84.26,33.64 82.37,34.69 81.63,35.98 C80.97,37.13 80.59,38.55 81.79,39.49 C83.27,40.64 84.47,39.76 85.64,38.53 C86.52,37.59 86.8,35.96 85.81,35.06 Z" fill="#D16250"/>
  <path d="M78.89,42.76 C77.37,43.01 75.74,45.23 76.7,53.71 C77.85,63.84 82.62,71.89 86.01,76.55 C89.52,81.37 92.93,80.56 92.97,80.06 C93.08,78.64 90.83,76.5 88.1,71.24 C84,63.37 81.55,55.18 81.2,50.87 C80.7,44.74 80.86,42.44 78.89,42.76 Z" fill="#D16250"/>
  <path d="M95.95,43.47 C95.14,44.13 94.02,49.06 99.1,57.41 C105.03,67.16 110.16,65.46 110.6,64.42 C111.04,63.38 107.06,60.08 105.29,57.64 C102.12,53.27 101.13,51.11 99.07,47.02 C98.18,45.25 96.82,42.76 95.95,43.47 Z" fill="#FBCB89"/>
  <path d="M50.42,95.6 C50.17,95.52 14.48,84.98 14.48,84.98 C14.48,84.98 14.12,86.05 13.92,87.8 C13.51,91.36 13.92,97.43 16.96,102.68 C19.54,107.13 23.77,110.62 29.57,113.24 C33.14,114.86 37.71,116.21 43.96,117.51 C62.17,121.29 84.25,116.17 86.51,99.04 C87.43,92.09 83.41,86.64 79.94,83.96 C74.86,80.03 69.39,80.75 69.39,80.75 L50.42,95.6 Z" fill="#871E0C"/>
  <path d="M56.04,80.83 C44.21,80.83 38.92,73.19 28.68,73.86 C21.61,74.32 17.43,78.31 15.75,81.67 C14.07,85.03 12.34,90.89 16.42,95.52 C20.87,100.56 27.83,107.86 49.32,111.55 C71.13,115.3 81.89,102.15 82.81,94.6 C83.73,87.05 79.54,81.93 73.33,81 C67.12,80.07 58.32,80.83 56.04,80.83 Z" fill="#A62714"/>
  <path d="M42.44,81.42 C41.32,82.57 44.51,88.9 52.46,89.37 C60.41,89.84 63.48,84.75 62.48,84.09 C61.89,83.7 55.62,83.93 52.6,83.62 C47.38,83.1 43.09,80.76 42.44,81.42 Z" fill="#FBCB89"/>
  <path d="M34.85,80.66 C33.79,84.35 27.39,81.35 23.51,83.76 C19.35,86.33 18.03,91.08 17.05,91.08 C15.6,91.08 15.5,82.7 22.92,78.55 C28.46,75.45 35.6,78.06 34.85,80.66 Z" fill="#D16250"/>
</svg>
